assets/icons/solid/suitcase.svg

<svg xmlns="http://www.w3.org/2000/svg" viewBox="0 0 512 512"><!--! Font Awesome Free 6.7.2 by @fontawesome - https://fontawesome.com License - https://fontawesome.com/license/free (Icons: CC BY 4.0, Fonts: SIL OFL 1.1, Code: MIT License) Copyright 2024 Fonticons, Inc. --><path d="M176 56l0 40 160 0 0-40c0-4.4-3.6-8-8-8L184 48c-4.4 0-8 3.6-8 8zM128 96l0-40c0-30.9 25.1-56 56-56L328 0c30.9 0 56 25.1 56 56l0 40 0 32 0 352-256 0 0-352 0-32zM64 96l32 0 0 384-32 0c-35.3 0-64-28.7-64-64L0 160c0-35.3 28.7-64 64-64zM448 480l-32 0 0-384 32 0c35.3 0 64 28.7 64 64l0 256c0 35.3-28.7 64-64 64z"/></svg>

<svg xmlns="http://www.w3.org/2000/svg" viewBox="0 0 512 512"><!--! Font Awesome Pro 6.5.1 by @fontawesome - https://fontawesome.com License - https://fontawesome.com/license (Commercial License) Copyright 2023 Fonticons, Inc. --><path d="M176 56V96H336V56c0-4.4-3.6-8-8-8H184c-4.4 0-8 3.6-8 8zM128 96V56c0-30.9 25.1-56 56-56H328c30.9 0 56 25.1 56 56V96v32V480H128V128 96zM64 96H96V480H64c-35.3 0-64-28.7-64-64V160c0-35.3 28.7-64 64-64zM448 480H416V96h32c35.3 0 64 28.7 64 64V416c0 35.3-28.7 64-64 64z"/></svg>
